inst/assets/svg/wi-night-cloudy-high.svg

<?xml version="1.0" encoding="UTF-8"?>
<svg xmlns="http://www.w3.org/2000/svg" xmlns:xlink="http://www.w3.org/1999/xlink" width="30pt" height="30pt" viewBox="0 0 30 30" version="1.1">
<g id="surface706">
<rect x="0" y="0" width="30" height="30" style="fill:rgb(100%,100%,100%);fill-opacity:1;stroke:none;"/>
<path style=" stroke:none;fill-rule:nonzero;fill:rgb(0%,0%,0%);fill-opacity:1;" d="M 3.578125 13.449219 C 3.578125 12.300781 3.941406 11.269531 4.660156 10.378906 C 5.378906 9.480469 6.289063 8.898438 7.398438 8.640625 C 7.710938 7.269531 8.421875 6.148438 9.511719 5.269531 C 10.601563 4.390625 11.859375 3.949219 13.269531 3.949219 C 14.648438 3.949219 15.878906 4.378906 16.960938 5.230469 C 18.039063 6.078125 18.738281 7.179688 19.058594 8.519531 L 19.390625 8.519531 C 20.289063 8.519531 21.121094 8.738281 21.878906 9.171875 C 22.640625 9.601563 23.25 10.199219 23.691406 10.960938 C 24.128906 11.71875 24.359375 12.539063 24.359375 13.441406 C 24.359375 13.640625 24.351563 13.839844 24.328125 14.050781 C 24.980469 14.558594 25.488281 15.199219 25.871094 15.960938 C 26.25 16.71875 26.429688 17.53125 26.429688 18.390625 C 26.429688 19.160156 26.28125 19.890625 25.980469 20.578125 C 25.679688 21.269531 25.28125 21.859375 24.78125 22.359375 C 24.28125 22.851563 23.679688 23.25 22.988281 23.539063 C 22.300781 23.828125 21.578125 23.980469 20.820313 23.980469 C 20.070313 23.980469 19.351563 23.828125 18.660156 23.539063 C 17.96875 23.25 17.378906 22.851563 16.878906 22.351563 C 16.378906 21.851563 15.988281 21.261719 15.691406 20.570313 C 15.390625 19.878906 15.238281 19.160156 15.238281 18.410156 L 8.378906 18.410156 C 7.039063 18.351563 5.910156 17.839844 4.980469 16.878906 C 4.050781 15.941406 3.578125 14.789063 3.578125 13.449219 Z M 5.289063 13.449219 C 5.289063 14.320313 5.589844 15.070313 6.191406 15.710938 C 6.789063 16.351563 7.519531 16.691406 8.378906 16.738281 L 19.570313 16.738281 C 20.429688 16.699219 21.160156 16.351563 21.761719 15.710938 C 22.371094 15.070313 22.671875 14.308594 22.671875 13.449219 C 22.671875 12.570313 22.339844 11.820313 21.691406 11.179688 C 21.039063 10.539063 20.269531 10.21875 19.371094 10.21875 L 17.75 10.21875 C 17.640625 10.21875 17.578125 10.160156 17.578125 10.050781 L 17.511719 9.46875 C 17.398438 8.390625 16.929688 7.480469 16.109375 6.75 C 15.289063 6.019531 14.339844 5.648438 13.25 5.648438 C 12.160156 5.648438 11.199219 6.019531 10.398438 6.75 C 9.601563 7.480469 9.140625 8.390625 9.039063 9.46875 L 8.960938 10.050781 C 8.960938 10.160156 8.890625 10.21875 8.761719 10.21875 L 8.238281 10.21875 C 7.398438 10.320313 6.699219 10.679688 6.140625 11.289063 C 5.570313 11.898438 5.289063 12.621094 5.289063 13.449219 Z M 16.550781 18.558594 C 16.609375 19.679688 17.070313 20.628906 17.921875 21.390625 C 18.769531 22.148438 19.738281 22.53125 20.828125 22.53125 C 21.429688 22.53125 22 22.410156 22.53125 22.179688 C 23.058594 21.949219 23.511719 21.628906 23.871094 21.25 C 24.230469 20.859375 24.519531 20.421875 24.71875 19.921875 C 24.929688 19.421875 25.03125 18.921875 25.03125 18.398438 C 25.03125 17.910156 24.929688 17.421875 24.730469 16.929688 C 24.53125 16.441406 24.25 15.988281 23.878906 15.578125 C 23.488281 16.398438 22.910156 17.078125 22.140625 17.601563 C 21.371094 18.121094 20.511719 18.390625 19.570313 18.429688 L 16.539063 18.429688 C 16.539063 18.441406 16.539063 18.46875 16.550781 18.558594 Z M 16.550781 18.558594 "/>
</g>
</svg>

<?xml version="1.0" encoding="utf-8"?>
<!-- Generator: Adobe Illustrator 22.0.1, SVG Export Plug-In . SVG Version: 6.00 Build 0)  -->
<svg version="1.1" id="Layer_1" xmlns="http://www.w3.org/2000/svg" xmlns:xlink="http://www.w3.org/1999/xlink" x="0px" y="0px"
	 viewBox="0 0 30 30" style="enable-background:new 0 0 30 30;" xml:space="preserve">
<style type="text/css">
	.st0{fill:#FFFFFF;}
</style>
<rect class="st0" width="30" height="30"/>
<path d="M3.58,13.45c0-1.15,0.36-2.18,1.08-3.07C5.38,9.48,6.29,8.9,7.4,8.64c0.31-1.37,1.02-2.49,2.11-3.37s2.35-1.32,3.76-1.32
	c1.38,0,2.61,0.43,3.69,1.28s1.78,1.95,2.1,3.29h0.33c0.9,0,1.73,0.22,2.49,0.65s1.37,1.03,1.81,1.79c0.44,0.76,0.67,1.58,0.67,2.48
	c0,0.2-0.01,0.4-0.03,0.61c0.65,0.51,1.16,1.15,1.54,1.91s0.56,1.57,0.56,2.43c0,0.77-0.15,1.5-0.45,2.19
	c-0.3,0.69-0.7,1.28-1.2,1.78c-0.5,0.49-1.1,0.89-1.79,1.18c-0.69,0.29-1.41,0.44-2.17,0.44c-0.75,0-1.47-0.15-2.16-0.44
	c-0.69-0.29-1.28-0.69-1.78-1.19c-0.5-0.5-0.89-1.09-1.19-1.78s-0.45-1.41-0.45-2.16H8.38c-1.34-0.06-2.47-0.57-3.4-1.53
	C4.05,15.94,3.58,14.79,3.58,13.45z M5.29,13.45c0,0.87,0.3,1.62,0.9,2.26c0.6,0.64,1.33,0.98,2.19,1.03h11.19
	c0.86-0.04,1.59-0.39,2.19-1.03c0.61-0.64,0.91-1.4,0.91-2.26c0-0.88-0.33-1.63-0.98-2.27s-1.42-0.96-2.32-0.96h-1.62
	c-0.11,0-0.17-0.06-0.17-0.17l-0.07-0.58c-0.11-1.08-0.58-1.99-1.4-2.72s-1.77-1.1-2.86-1.1c-1.09,0-2.05,0.37-2.85,1.1
	S9.14,8.39,9.04,9.47l-0.08,0.58c0,0.11-0.07,0.17-0.2,0.17H8.24c-0.84,0.1-1.54,0.46-2.1,1.07C5.57,11.9,5.29,12.62,5.29,13.45z
	 M16.55,18.56c0.06,1.12,0.52,2.07,1.37,2.83c0.85,0.76,1.82,1.14,2.91,1.14c0.6,0,1.17-0.12,1.7-0.35s0.98-0.55,1.34-0.93
	c0.36-0.39,0.65-0.83,0.85-1.33c0.21-0.5,0.31-1,0.31-1.52c0-0.49-0.1-0.98-0.3-1.47s-0.48-0.94-0.85-1.35
	c-0.39,0.82-0.97,1.5-1.74,2.02c-0.77,0.52-1.63,0.79-2.57,0.83h-3.03C16.54,18.44,16.54,18.47,16.55,18.56z"/>
</svg>
